build/img/partners/arabella.svg

<svg width="152" height="47" viewBox="0 0 152 47" fill="none" xmlns="http://www.w3.org/2000/svg">
<path d="M124.987 39.3838V39.2266C124.987 38.6934 125.064 38.1989 125.219 37.7432C125.374 37.2829 125.597 36.8841 125.889 36.5469C126.181 36.2051 126.534 35.9408 126.948 35.7539C127.363 35.5625 127.828 35.4668 128.343 35.4668C128.863 35.4668 129.33 35.5625 129.744 35.7539C130.164 35.9408 130.519 36.2051 130.811 36.5469C131.107 36.8841 131.333 37.2829 131.488 37.7432C131.642 38.1989 131.72 38.6934 131.72 39.2266V39.3838C131.72 39.917 131.642 40.4115 131.488 40.8672C131.333 41.3229 131.107 41.7217 130.811 42.0635C130.519 42.4007 130.166 42.665 129.751 42.8564C129.341 43.0433 128.876 43.1367 128.357 43.1367C127.837 43.1367 127.37 43.0433 126.955 42.8564C126.541 42.665 126.185 42.4007 125.889 42.0635C125.597 41.7217 125.374 41.3229 125.219 40.8672C125.064 40.4115 124.987 39.917 124.987 39.3838ZM126.251 39.2266V39.3838C126.251 39.7529 126.295 40.1016 126.381 40.4297C126.468 40.7533 126.598 41.0404 126.771 41.291C126.948 41.5417 127.17 41.7399 127.434 41.8857C127.698 42.027 128.006 42.0977 128.357 42.0977C128.703 42.0977 129.006 42.027 129.266 41.8857C129.53 41.7399 129.749 41.5417 129.922 41.291C130.095 41.0404 130.225 40.7533 130.312 40.4297C130.403 40.1016 130.448 39.7529 130.448 39.3838V39.2266C130.448 38.862 130.403 38.5179 130.312 38.1943C130.225 37.8662 130.093 37.5768 129.915 37.3262C129.742 37.071 129.523 36.8704 129.259 36.7246C128.999 36.5788 128.694 36.5059 128.343 36.5059C127.997 36.5059 127.691 36.5788 127.427 36.7246C127.167 36.8704 126.948 37.071 126.771 37.3262C126.598 37.5768 126.468 37.8662 126.381 38.1943C126.295 38.5179 126.251 38.862 126.251 39.2266ZM140.475 35.6035V36.6494H136.735V35.6035H140.475ZM136.92 35.6035V43H135.655V35.6035H136.92ZM141.596 35.6035V43H140.324V35.6035H141.596ZM148.881 35.6035V43H147.609V35.6035H148.881ZM151.362 35.6035V36.6289H145.176V35.6035H151.362Z" fill="black"/>
<path fill-rule="evenodd" clip-rule="evenodd" d="M3.10873 21.9675C-1.06862 18.3834 -0.792289 13.485 2.48607 10.9571C6.07155 8.60758 10.766 12.103 13.1625 16.2971C14.4553 18.1345 15.6897 19.5746 17.9858 19.9475C23.8565 20.8994 31.9692 17.3176 36.5619 12.4106C37.9256 15.8579 24.1297 25.6719 18.3361 25.4396C12.399 25.0329 12.6626 20.0668 7.13604 13.1751C5.23504 11.0082 -1.28117 14.0987 3.10873 21.9675Z" fill="#FBC494"/>
<path fill-rule="evenodd" clip-rule="evenodd" d="M3.10591 21.9666C0.0986297 18.1545 0.816337 13.5809 3.53979 11.1045C5.28501 9.48601 7.39503 8.52752 9.87823 8.46265C12.9273 8.38397 16.46 11.0158 17.7454 16.5508C18.4833 20.0067 20.9212 24.648 24.2123 24.2284C27.5945 23.3901 30.4711 20.5679 33.1712 18.1221C31.1439 21.0262 27.4462 26.4048 22.0077 27.1588C17.8167 27.6061 17.748 18.3062 16.0499 15.5761C14.8556 13.6572 12.4331 12.414 9.19089 13.0148C4.86964 14.0553 0.930764 17.6128 3.10591 21.9666Z" fill="#C29771"/>
<path fill-rule="evenodd" clip-rule="evenodd" d="M17.4414 19.8335C17.903 19.9432 18.4993 20.039 18.9662 20.0624C20.1032 22.1716 21.2971 23.8106 23.2469 24.2083C21.9866 24.7882 20.5891 25.2045 19.2148 25.4043C18.296 23.7739 17.8344 21.75 17.4414 19.8335Z" fill="#977150"/>
<path fill-rule="evenodd" clip-rule="evenodd" d="M3.11094 21.966C-0.107106 18.0161 0.611923 12.6088 4.6489 10.2126C6.79193 9.88591 9.32264 11.657 10.5662 12.9317C9.28435 12.926 8.31537 13.2521 7.45816 13.5783C6.11954 11.7848 3.63063 12.6022 2.5578 14.0599C1.45945 15.3818 1.11269 18.882 3.11094 21.966Z" fill="#977150"/>
<path fill-rule="evenodd" clip-rule="evenodd" d="M14.5601 29.5383L15.8081 26.3147C16.5918 26.6566 17.4886 26.7768 18.4312 26.7653L16.9443 30.6146C16.8052 30.9379 16.5799 31.1673 16.2688 31.3037C16.1095 31.3757 15.9573 31.4115 15.805 31.4115C15.6329 31.4115 15.4741 31.3757 15.3148 31.3037L15.2224 31.2608C14.9245 31.1244 14.7124 30.8874 14.5799 30.5502C14.5139 30.3638 14.4805 30.1911 14.4805 30.0261C14.4805 29.8683 14.5069 29.7105 14.5601 29.5383ZM18.781 18.6352L25.6787 0.817941C25.8578 0.272879 26.2618 0.000110886 26.8774 0.000110886C27.4869 0.000110886 27.8843 0.272879 28.0629 0.817941L39.182 29.5382C39.2612 29.7104 39.2947 29.8826 39.2947 30.0623C39.2947 30.2202 39.2678 30.378 39.2018 30.5502C39.0693 30.9016 38.844 31.1386 38.5197 31.2607L38.4269 31.3036C38.2548 31.3756 38.096 31.4114 37.9367 31.4114C37.7844 31.3971 37.6322 31.3613 37.4733 31.3036C37.1622 31.1672 36.9435 30.9379 36.811 30.6145C35.8016 27.9937 35.0399 26.0228 34.529 24.698L34.5567 24.699L31.2348 16.1216H31.2211L31.149 15.9318C30.4999 14.2522 29.7518 12.2861 28.8906 10.0253C28.0299 7.77205 27.4737 6.32236 27.2286 5.67669C27.1423 5.43968 27.0565 5.27468 26.9769 5.19553C26.9373 5.15261 26.8972 5.13115 26.8642 5.13115L26.745 5.19553C26.6658 5.27469 26.5795 5.43968 26.4735 5.67669C26.1888 6.33667 25.765 7.40581 25.1956 8.89174C24.6262 10.3772 24.0831 11.8126 23.5731 13.2045L22.2508 16.7858L21.556 18.5984C20.6389 18.7286 19.6906 18.7268 18.781 18.6352ZM41.6854 30.1482V12.1355C41.6854 11.7692 41.8113 11.4536 42.056 11.1951C42.3011 10.9371 42.599 10.8079 42.9369 10.8079H43.01C43.3673 10.8079 43.6652 10.9371 43.9235 11.1951C44.1752 11.4536 44.3011 11.7692 44.3011 12.1355V13.4774C44.3011 13.5923 44.3209 13.6638 44.3675 13.7072C44.4137 13.7502 44.4599 13.7573 44.5132 13.7287C44.566 13.7001 44.6122 13.6567 44.6522 13.6066C45.0228 13.1112 45.4602 12.609 45.9631 12.0921C46.4665 11.5685 46.8837 11.2166 47.2217 11.0158C47.5064 10.8365 47.8773 10.7936 48.3473 10.8794C48.8243 10.9729 49.1486 11.1951 49.3273 11.547C49.3273 11.5685 49.3541 11.6114 49.4069 11.6691C49.4932 11.8126 49.5394 12.0063 49.5394 12.2576C49.5394 12.3577 49.5328 12.4583 49.5196 12.5732C49.4663 12.9824 49.3075 13.2838 49.036 13.4774C48.8573 13.6209 48.5792 13.8217 48.2082 14.0945C47.8307 14.3744 47.5724 14.5608 47.4201 14.6758C47.2745 14.7907 47.0496 14.97 46.7447 15.2213C46.4467 15.4726 46.228 15.6734 46.1092 15.8098C45.9834 15.9533 45.8175 16.1469 45.5992 16.3982C45.3739 16.6495 45.2217 16.886 45.1354 17.0944C45.043 17.3024 44.9303 17.5608 44.7913 17.8694C44.6588 18.1779 44.566 18.4936 44.5132 18.8097C44.4599 19.1254 44.4137 19.4769 44.3675 19.8717C44.3209 20.2589 44.3011 20.6896 44.3011 21.1493L44.2417 30.1482C44.2417 30.5145 44.1224 30.823 43.8839 31.0667C43.6388 31.3109 43.3541 31.4329 43.01 31.4329H42.9369C42.5858 31.4329 42.2879 31.3109 42.0494 31.0667C41.8047 30.823 41.6854 30.5145 41.6854 30.1482ZM50.2347 21.1922C50.2347 19.2184 50.6787 17.3958 51.5724 15.7163C52.4666 14.0444 53.6851 12.7168 55.2349 11.7478C56.7777 10.7716 58.4666 10.2838 60.2875 10.2838C61.6715 10.2838 62.996 10.578 64.2677 11.1665C65.5324 11.7549 66.5524 12.5661 67.3137 13.6066C67.367 13.743 67.466 13.8074 67.6121 13.7931C67.7643 13.7788 67.8369 13.6424 67.8369 13.3911V12.1283C67.8369 11.7692 67.9562 11.4535 68.1947 11.1951C68.4332 10.9371 68.7245 10.8079 69.062 10.8079H69.1351C69.4726 10.8079 69.7639 10.9371 70.009 11.1951C70.2541 11.4535 70.38 11.7692 70.38 12.1355V30.1482C70.38 30.5145 70.2541 30.8301 70.009 31.0886C69.7639 31.3466 69.4726 31.4758 69.1351 31.4758H69.062C68.7245 31.4758 68.4332 31.3466 68.1947 31.0886C67.9562 30.8302 67.8369 30.5145 67.8369 30.1482V28.8492C67.8369 28.6914 67.8105 28.5836 67.7577 28.5192C67.7045 28.462 67.6517 28.4401 67.5918 28.462C67.539 28.4835 67.4928 28.5121 67.466 28.555C66.6118 29.6461 65.572 30.493 64.3337 31.0958C63.0954 31.6985 61.7775 31.9999 60.3671 31.9999C58.9964 31.9999 57.6851 31.7128 56.4336 31.1458C55.1882 30.5788 54.1088 29.8182 53.2019 28.8707C52.3011 27.9165 51.579 26.7682 51.0426 25.4334C50.5066 24.0915 50.2347 22.6776 50.2347 21.1922ZM52.7777 21.1922C52.7777 23.4382 53.5196 25.3686 55.0096 26.9909C56.4996 28.6056 58.2809 29.4163 60.3672 29.4163C62.42 29.4163 64.1749 28.6127 65.6253 26.9981C67.0757 25.3834 67.7973 23.4525 67.7973 21.1922C67.7973 18.9385 67.062 16.9867 65.5852 15.3362C64.1084 13.6925 62.3469 12.8675 60.2875 12.8675C58.2149 12.8675 56.4468 13.6925 54.9832 15.3362C53.513 16.9867 52.7777 18.9385 52.7777 21.1922ZM74.3338 30.1482V1.28429C74.3338 0.932838 74.453 0.631457 74.6977 0.380148C74.9362 0.129314 75.2209 8.31647e-05 75.5457 8.31647e-05H75.6979C76.0354 8.31647e-05 76.3338 0.129316 76.5785 0.380148C76.8236 0.631457 76.9494 0.93284 76.9494 1.28429V13.6423C76.9494 13.7573 76.9758 13.836 77.0291 13.8794C77.0819 13.9223 77.1417 13.9294 77.2143 13.908C77.2808 13.8865 77.3402 13.8431 77.3732 13.7716C79.1479 11.4464 81.426 10.2838 84.2009 10.2838C87.0221 10.2838 89.386 11.3314 91.287 13.4344C93.2404 15.5083 94.2137 18.0629 94.2137 21.0915C94.2137 24.1201 93.2404 26.6895 91.287 28.8063C89.32 30.9379 86.9556 31.9999 84.2009 31.9999C82.883 31.9999 81.6183 31.6842 80.413 31.0452C79.2011 30.4067 78.1415 29.5097 77.2209 28.3471C77.1149 28.2465 77.0489 28.225 77.0093 28.2822C76.9692 28.3399 76.9494 28.4115 76.9494 28.5121V30.1482C76.9494 30.5145 76.8302 30.823 76.5851 31.0667C76.347 31.3108 76.0487 31.4329 75.6979 31.4329H75.5457C75.2209 31.4329 74.9362 31.3108 74.6977 31.0667C74.453 30.823 74.3338 30.5145 74.3338 30.1482ZM76.7377 21.0916C76.7377 23.3452 77.466 25.2971 78.9296 26.9475C80.3866 28.5913 82.1481 29.4163 84.2009 29.4163C86.2603 29.4163 88.0152 28.5913 89.4788 26.9475C90.9424 25.2971 91.6707 23.3452 91.6707 21.0916C91.6707 18.8455 90.9424 16.9151 89.4788 15.2928C88.0153 13.6781 86.2603 12.8675 84.2009 12.8675C82.1481 12.8675 80.3866 13.6781 78.9296 15.2928C77.466 16.9151 76.7377 18.8455 76.7377 21.0916ZM99.6708 28.8063C97.7174 26.6461 96.7436 24.0772 96.7436 21.0916C96.7436 18.0992 97.7174 15.5513 99.6708 13.4345C101.611 11.3315 103.989 10.2838 106.796 10.2838C109.591 10.2838 111.955 11.3315 113.896 13.4345C115.293 14.9485 116.127 16.7859 116.399 18.9456C116.412 19.0391 116.419 19.1397 116.419 19.2399C116.419 19.5489 116.352 19.8431 116.227 20.123C116.041 20.4888 115.71 20.6681 115.22 20.6681H99.9823C99.7108 20.6681 99.5317 20.7186 99.4459 20.8259C99.3597 20.9337 99.3333 21.1493 99.3597 21.4864C99.5119 23.6609 100.24 25.4263 101.532 26.7897C103.154 28.5407 104.902 29.4163 106.796 29.4163C107.763 29.4163 108.73 29.1797 109.684 28.6986C110.644 28.225 111.366 27.6724 111.843 27.041C112.088 26.7181 112.3 26.4668 112.472 26.2804C112.644 26.1006 112.829 25.9571 113.028 25.8498C113.22 25.7491 113.412 25.7062 113.604 25.7348C113.803 25.7634 114.008 25.8569 114.227 26.0076C114.578 26.2732 114.77 26.6175 114.803 27.041C114.829 27.4573 114.69 27.8445 114.385 28.1964C114.28 28.3328 114.121 28.5264 113.896 28.7634C111.909 30.9236 109.538 32 106.796 32C104.048 32 101.677 30.9379 99.6708 28.8063ZM100.042 17.805C100.115 17.8622 100.326 17.8979 100.658 17.9123H112.909C113.101 17.9123 113.253 17.8908 113.353 17.8479C113.445 17.805 113.492 17.7544 113.492 17.6829C113.492 17.6109 113.472 17.5179 113.432 17.4101C113.406 17.3381 113.353 17.2308 113.28 17.0944C113.021 16.5489 112.604 15.9819 112.035 15.4077C110.472 13.7144 108.723 12.8674 106.796 12.8674C104.83 12.8674 103.061 13.7144 101.492 15.4077C100.936 16.0105 100.479 16.6424 100.115 17.3023C100.042 17.4673 100.002 17.6037 100.002 17.7043C100.002 17.7473 100.015 17.7759 100.042 17.805ZM119.564 30.1053V1.3276C119.564 0.961369 119.69 0.645681 119.935 0.387217C120.18 0.12923 120.471 0 120.809 0H120.882C121.22 0 121.511 0.129231 121.75 0.387217C121.988 0.645679 122.107 0.961367 122.107 1.3276V30.1053C122.107 30.4711 121.988 30.7872 121.75 31.0452C121.511 31.3037 121.22 31.4329 120.882 31.4329H120.809C120.471 31.4329 120.18 31.3037 119.935 31.0452C119.69 30.7872 119.564 30.4711 119.564 30.1053ZM126.061 30.1053V1.3276C126.061 0.961369 126.187 0.645681 126.431 0.387217C126.676 0.12923 126.968 0 127.306 0H127.378C127.716 0 128.008 0.129231 128.246 0.387217C128.485 0.645679 128.604 0.961367 128.604 1.3276V30.1053C128.604 30.4711 128.485 30.7872 128.246 31.0452C128.008 31.3037 127.716 31.4329 127.378 31.4329H127.306C126.968 31.4329 126.676 31.3037 126.431 31.0452C126.187 30.7872 126.061 30.4711 126.061 30.1053ZM131.855 21.1921C131.855 19.2184 132.299 17.3958 133.193 15.7163C134.087 14.0444 135.305 12.7168 136.855 11.7478C138.398 10.7716 140.087 10.2838 141.908 10.2838C143.292 10.2838 144.616 10.578 145.888 11.1665C147.153 11.7549 148.173 12.5661 148.934 13.6066C148.987 13.743 149.086 13.8073 149.232 13.793C149.385 13.7787 149.457 13.6423 149.457 13.391V12.1283C149.457 11.7692 149.576 11.4535 149.815 11.1951C150.053 10.9371 150.345 10.8078 150.682 10.8078H150.755C151.093 10.8078 151.384 10.9371 151.629 11.1951C151.874 11.4535 152 11.7692 152 12.1354V30.1482C152 30.5144 151.874 30.8301 151.629 31.0886C151.384 31.3466 151.093 31.4758 150.755 31.4758H150.682C150.345 31.4758 150.053 31.3466 149.815 31.0886C149.576 30.8301 149.457 30.5144 149.457 30.1482V28.8492C149.457 28.6914 149.431 28.5836 149.378 28.5192C149.325 28.462 149.272 28.4401 149.212 28.462C149.159 28.4835 149.113 28.5121 149.086 28.555C148.232 29.6461 147.192 30.493 145.954 31.0957C144.716 31.6985 143.398 31.9999 141.987 31.9999C140.617 31.9999 139.305 31.7128 138.054 31.1458C136.808 30.5788 135.729 29.8182 134.822 28.8707C133.921 27.9164 133.199 26.7681 132.663 25.4334C132.127 24.0915 131.855 22.6776 131.855 21.1921ZM134.398 21.1921C134.398 23.4382 135.14 25.3686 136.63 26.9909C138.12 28.6056 139.901 29.4162 141.987 29.4162C144.04 29.4162 145.795 28.6127 147.245 26.998C148.696 25.3834 149.418 23.4525 149.418 21.1922C149.418 18.9385 148.682 16.9866 147.205 15.3362C145.729 13.6924 143.967 12.8674 141.908 12.8674C139.835 12.8674 138.067 13.6924 136.603 15.3362C135.133 16.9866 134.398 18.9385 134.398 21.1921Z" fill="#1F1A17"/>
</svg>

<svg width="152" height="47" fill="none" xmlns="http://www.w3.org/2000/svg"><path d="M124.987 39.384v-.157c0-.534.077-1.028.232-1.484a3.52 3.52 0 0 1 .67-1.196 2.997 2.997 0 0 1 1.059-.793c.415-.191.88-.287 1.395-.287a3.3 3.3 0 0 1 1.401.287c.42.187.775.451 1.067.793.296.337.522.736.677 1.196.154.456.232.95.232 1.484v.157c0 .533-.078 1.027-.232 1.483a3.555 3.555 0 0 1-.677 1.197 3.103 3.103 0 0 1-1.06.792c-.41.187-.875.28-1.394.28-.52 0-.987-.093-1.402-.28a3.174 3.174 0 0 1-1.066-.793 3.609 3.609 0 0 1-.67-1.196 4.579 4.579 0 0 1-.232-1.483Zm1.264-.157v.157c0 .369.044.718.13 1.046.087.323.217.61.39.861.177.25.399.449.663.595.264.141.572.212.923.212.346 0 .649-.071.909-.212.264-.146.483-.344.656-.595.173-.25.303-.538.39-.861.091-.328.136-.677.136-1.046v-.157c0-.365-.045-.71-.136-1.033a2.661 2.661 0 0 0-.397-.868 1.885 1.885 0 0 0-.656-.601 1.841 1.841 0 0 0-.916-.22c-.346 0-.652.074-.916.22-.26.145-.479.346-.656.601-.173.25-.303.54-.39.868a4.01 4.01 0 0 0-.13 1.033Zm14.224-3.623v1.045h-3.74v-1.046h3.74Zm-3.555 0V43h-1.265v-7.397h1.265Zm4.676 0V43h-1.272v-7.397h1.272Zm7.285 0V43h-1.272v-7.397h1.272Zm2.481 0v1.025h-6.186v-1.026h6.186Z" fill="#000"/><path fill-rule="evenodd" clip-rule="evenodd" d="M3.109 21.968c-4.178-3.585-3.901-8.483-.623-11.01 3.586-2.35 8.28 1.145 10.676 5.34 1.293 1.837 2.528 3.277 4.824 3.65 5.87.951 13.983-2.63 18.576-7.537 1.364 3.447-12.432 13.26-18.226 13.029-5.937-.407-5.673-5.373-11.2-12.265-1.901-2.167-8.417.924-4.027 8.793Z" fill="#FBC494"/><path fill-rule="evenodd" clip-rule="evenodd" d="M3.106 21.967C.099 18.154.816 13.58 3.54 11.105c1.745-1.619 3.855-2.577 6.338-2.642 3.05-.079 6.582 2.553 7.867 8.088.738 3.456 3.176 8.097 6.467 7.677 3.383-.838 6.26-3.66 8.96-6.106-2.028 2.904-5.726 8.283-11.164 9.037-4.191.447-4.26-8.853-5.958-11.583-1.194-1.919-3.617-3.162-6.86-2.561-4.32 1.04-8.26 4.598-6.084 8.952Z" fill="#C29771"/><path fill-rule="evenodd" clip-rule="evenodd" d="M17.441 19.834c.462.11 1.058.205 1.525.228 1.137 2.11 2.331 3.749 4.28 4.146-1.26.58-2.657.997-4.031 1.196-.919-1.63-1.38-3.654-1.774-5.57ZM3.11 21.966c-3.216-3.95-2.497-9.357 1.54-11.753 2.143-.327 4.674 1.444 5.917 2.719-1.282-.006-2.25.32-3.108.646-1.338-1.793-3.827-.976-4.9.482-1.099 1.322-1.445 4.822.553 7.906Z" fill="#977150"/><path fill-rule="evenodd" clip-rule="evenodd" d="m14.56 29.538 1.248-3.223c.784.342 1.68.462 2.623.45l-1.487 3.85a1.273 1.273 0 0 1-.675.689 1.114 1.114 0 0 1-.954 0l-.093-.043c-.297-.137-.51-.374-.642-.71-.066-.187-.1-.36-.1-.525 0-.158.027-.316.08-.488Zm4.221-10.903L25.679.818C25.858.273 26.262 0 26.877 0c.61 0 1.007.273 1.186.818l11.119 28.72c.08.172.113.345.113.524 0 .158-.027.316-.093.488-.133.352-.358.589-.682.71l-.093.044a1.251 1.251 0 0 1-.49.107 1.857 1.857 0 0 1-.464-.107 1.227 1.227 0 0 1-.662-.69l-2.282-5.916.028.001-3.322-8.577h-.014l-.072-.19c-.65-1.68-1.397-3.646-2.258-5.907-.861-2.253-1.417-3.703-1.662-4.348-.087-.237-.172-.402-.252-.481-.04-.043-.08-.065-.113-.065l-.119.065c-.08.079-.166.244-.271.48-.285.66-.709 1.73-1.278 3.216-.57 1.485-1.113 2.92-1.623 4.313l-1.322 3.58-.695 1.813c-.917.13-1.865.129-2.775.037Zm22.904 11.513V12.136c0-.367.126-.682.371-.94a1.18 1.18 0 0 1 .88-.388h.074c.357 0 .655.13.913.387.252.259.378.574.378.94v1.342c0 .115.02.187.066.23.047.043.093.05.146.022a.468.468 0 0 0 .14-.122c.37-.496.807-.998 1.31-1.515.504-.524.92-.875 1.259-1.076.284-.18.655-.222 1.125-.137.477.094.802.316.98.668 0 .021.027.064.08.122.086.144.132.337.132.589 0 .1-.006.2-.02.315-.053.41-.212.71-.483.904-.179.144-.457.345-.828.617-.377.28-.636.467-.788.582-.145.115-.37.294-.675.545a6.464 6.464 0 0 0-.636.589c-.126.143-.291.337-.51.588a2.53 2.53 0 0 0-.464.696c-.092.208-.205.467-.344.775a4.093 4.093 0 0 0-.278.94c-.053.316-.1.668-.145 1.063-.047.387-.067.818-.067 1.277l-.06 9c0 .366-.119.674-.357.918-.245.244-.53.366-.874.366h-.073c-.351 0-.65-.122-.888-.366a1.244 1.244 0 0 1-.364-.919Zm8.55-8.956c0-1.974.444-3.796 1.337-5.476.895-1.672 2.113-3 3.663-3.968a9.278 9.278 0 0 1 5.053-1.464 9.37 9.37 0 0 1 3.98.882c1.264.589 2.284 1.4 3.046 2.44.053.137.152.201.298.187.152-.014.225-.15.225-.402v-1.263c0-.359.12-.675.358-.933s.53-.387.867-.387h.073c.338 0 .629.13.874.387.245.258.371.574.371.94v18.013c0 .367-.126.682-.371.94a1.165 1.165 0 0 1-.874.388h-.073c-.337 0-.629-.13-.867-.387a1.34 1.34 0 0 1-.358-.94v-1.3c0-.158-.026-.265-.08-.33-.053-.057-.105-.079-.165-.057a.256.256 0 0 0-.126.093A8.932 8.932 0 0 1 60.367 32a9.43 9.43 0 0 1-3.933-.854 10.384 10.384 0 0 1-3.232-2.275c-.9-.954-1.623-2.103-2.16-3.438a11.331 11.331 0 0 1-.807-4.24Zm2.543 0c0 2.246.742 4.177 2.232 5.799 1.49 1.615 3.27 2.425 5.357 2.425 2.053 0 3.808-.803 5.258-2.418 1.45-1.615 2.172-3.546 2.172-5.806 0-2.253-.735-4.205-2.212-5.856-1.477-1.643-3.238-2.469-5.297-2.469-2.073 0-3.841.825-5.305 2.47-1.47 1.65-2.205 3.602-2.205 5.855Zm21.556 8.956V1.284c0-.351.119-.653.364-.904.238-.25.523-.38.848-.38h.152c.337 0 .636.13.88.38.246.251.371.553.371.904v12.358c0 .115.027.194.08.237.053.043.113.05.185.029a.256.256 0 0 0 .16-.136c1.774-2.326 4.052-3.488 6.827-3.488 2.821 0 5.185 1.047 7.086 3.15 1.953 2.074 2.927 4.629 2.927 7.658 0 3.028-.974 5.598-2.927 7.714C89.32 30.938 86.956 32 84.201 32a7.98 7.98 0 0 1-3.788-.955c-1.212-.638-2.272-1.535-3.192-2.698-.106-.1-.172-.122-.212-.065a.385.385 0 0 0-.06.23v1.636c0 .367-.119.675-.364.919a1.193 1.193 0 0 1-.887.366h-.152a1.15 1.15 0 0 1-.848-.366 1.244 1.244 0 0 1-.364-.919Zm2.404-9.056c0 2.253.728 4.205 2.192 5.856 1.457 1.643 3.218 2.468 5.27 2.468 2.06 0 3.815-.825 5.279-2.468 1.463-1.65 2.192-3.603 2.192-5.856 0-2.246-.729-4.177-2.192-5.8-1.464-1.614-3.219-2.425-5.278-2.425-2.053 0-3.814.811-5.271 2.426-1.464 1.622-2.192 3.553-2.192 5.799Zm22.933 7.714c-1.954-2.16-2.927-4.729-2.927-7.714 0-2.993.973-5.54 2.927-7.657 1.94-2.104 4.318-3.151 7.125-3.151 2.795 0 5.159 1.047 7.1 3.15 1.397 1.514 2.231 3.352 2.503 5.512a2.146 2.146 0 0 1-.172 1.177c-.186.366-.517.545-1.007.545H99.982c-.271 0-.45.05-.536.158-.086.108-.113.323-.086.66.152 2.175.88 3.94 2.172 5.304 1.622 1.75 3.37 2.626 5.264 2.626.967 0 1.934-.236 2.888-.717.96-.474 1.682-1.027 2.159-1.658.245-.323.457-.574.629-.76.172-.18.357-.324.556-.431a.93.93 0 0 1 .576-.115c.199.028.404.122.623.273.351.265.543.61.576 1.033.026.416-.113.803-.418 1.155-.105.137-.264.33-.489.567-1.987 2.16-4.358 3.237-7.1 3.237-2.748 0-5.119-1.062-7.125-3.194Zm.371-11.001c.073.057.284.093.616.107h12.251c.192 0 .344-.021.444-.064.092-.043.139-.094.139-.165a.824.824 0 0 0-.06-.273 2.763 2.763 0 0 0-.152-.316c-.259-.545-.676-1.112-1.245-1.686-1.563-1.694-3.312-2.54-5.239-2.54-1.966 0-3.735.846-5.304 2.54a9.712 9.712 0 0 0-1.377 1.894c-.073.165-.113.302-.113.402 0 .043.013.072.04.101Zm19.522 12.3V1.328c0-.367.126-.682.371-.94.245-.259.536-.388.874-.388h.073c.338 0 .629.13.868.387.238.259.357.574.357.94v28.778c0 .366-.119.682-.357.94a1.14 1.14 0 0 1-.868.388h-.073c-.338 0-.629-.13-.874-.388a1.323 1.323 0 0 1-.371-.94Zm6.497 0V1.328c0-.367.126-.682.37-.94.245-.259.537-.388.875-.388h.072c.338 0 .63.13.868.387.239.259.358.574.358.94v28.778c0 .366-.119.682-.358.94a1.14 1.14 0 0 1-.868.388h-.072c-.338 0-.63-.13-.875-.388a1.326 1.326 0 0 1-.37-.94Zm5.794-8.913c0-1.974.444-3.796 1.338-5.476.894-1.672 2.112-3 3.662-3.968a9.28 9.28 0 0 1 5.053-1.464 9.37 9.37 0 0 1 3.98.882c1.265.589 2.285 1.4 3.046 2.44.053.137.152.201.298.187.153-.014.225-.15.225-.402v-1.263c0-.359.119-.675.358-.933a1.14 1.14 0 0 1 .867-.387h.073c.338 0 .629.13.874.387.245.258.371.574.371.94v18.013c0 .366-.126.682-.371.94a1.165 1.165 0 0 1-.874.388h-.073a1.14 1.14 0 0 1-.867-.387 1.339 1.339 0 0 1-.358-.94v-1.3c0-.158-.026-.265-.079-.33-.053-.057-.106-.079-.166-.057a.256.256 0 0 0-.126.093 8.844 8.844 0 0 1-3.132 2.54 8.93 8.93 0 0 1-3.967.905 9.428 9.428 0 0 1-3.933-.854 10.38 10.38 0 0 1-3.232-2.275c-.901-.955-1.623-2.103-2.159-3.438a11.332 11.332 0 0 1-.808-4.24Zm2.543 0c0 2.246.742 4.177 2.232 5.799 1.49 1.615 3.271 2.425 5.357 2.425 2.053 0 3.808-.803 5.258-2.418 1.451-1.615 2.173-3.546 2.173-5.806 0-2.253-.736-4.205-2.213-5.856-1.476-1.644-3.238-2.469-5.297-2.469-2.073 0-3.841.825-5.305 2.47-1.47 1.65-2.205 3.602-2.205 5.855Z" fill="#1F1A17"/></svg>
